X:1
T:Away, away, away - Webbe
T:#
%%score [ { 1 | 2 } 3 ]
L:1/8
Q:1/4=120
M:4/4
K:C
V:1 treble-8 nm="Tenor II"
V:2 treble-8 
V:3 bass nm="Bass" snm="B"
V:1
[K:Bb]"^Away, away, away""^Samuel Webbe\n(1740-1816)""^allegretto" z | z6 | z3 z2 F | B2 f f2 e | %4
w: ||A-|way, a- way, a-|
w: ||The|jol- ly, jol- ly|
 d3- d2 c |[M:6/8][K:treble-8] d3- d2 c | B3- B2 c | d3- d2 =e | f2 c c2 f | f2 F c2 B | %10
w: way: * We've|crown'd * the|day; * We've|crown'd * the|day, The hounds are|wait- ing for their|
w: horn, * The|ro\- * sy|morn, * the|ro\- * sy|morn, With har- mo-|ny of deep- mouth'd|
({B} A3- A2) | c | f3 f3 | f6- | f3 f2 d | c2 c c2 z | z6 | z3 z2 f | d2 d (Td>c)d | e2 c c2 z | %20
w: |The|hunt- sman's|call|* * In-|vites ye all.||The|hunt- sman's call * In-|vites ye all;|
w: |For|these, my|boys,|* * Are|sport- smen's joys,||For|these, my boys, * Are|sport- smen's joys,|
 z6 | z6 | z6 | z3 z2 f | f2 f f2 e | d2 d d2 c | B2 B (c>B)c | d3- d2 f | f2 f f2 e | d2 d d2 c | %30
w: |||The|hunt- sman's call In-|vites ye all, Come|in boys, while * ye|may, * The|hunt- sman's call In-|vites ye all, Come|
w: |||For|these, my boys, Are|sport- smen's joys, Our|plea- sure knows * no|bounds, * For|these, my boys, Are|sport- smen's joys, Our|
 B2 B (Bc)d | e3- e2 d | c2 c f2 e | d3- !fermata!d2 :| %34
w: in boys, while * ye|may, * Come|in boys, while ye|may. *|
w: plea- sure knows * no|bounds, * Our|plea- sure knows no|bounds. *|
V:2
[K:Bb] F | B2 f f2 e | d3- d2 c | d2 d d2 c | B3- B2 A |[M:6/8][K:treble-8] B3- B2 F | D3- D2 z | %7
w: A-|way, a- way, a-|way; * a-|way, a- way, a-|way; * We've|crown'd * the|day; *|
w: The|jol- ly, jol- ly|horn, * the|jol- ly, jol- ly|horn, * The|ro\- * sy|morn, *|
 z2 B (B>A)G | A2 A A2 A | A2 A A2 G | F3- F2 | z | z6 | z3 z2 f | d2 d (Td>c)d | e2 c c2 z | z6 | %17
w: We've crown'd * the|day, The hounds are|wait- ing for their|prey. *|||The|hunt- sman's ~call * In-|vites ye all.||
w: The ro\- * sy|morn, With har- mo-|ny of deep- mouth'd|hounds. *|||For|these, my boys, * Are|sport- smen's joys,||
 z3 z2 F | B2 B (TB>A)B | c2 A A2 F | D2 F B2 c | d3- d2 c | B2 c d2 e | f3- f2 d | d2 d d2 c | %25
w: The|hunt- sman's call * In-|vites ye all; Come|in boys, while ye|may, * Come|in boys, while ye|may, * The|hunt- sman's call In-|
w: For|these, my boys, * Are|sport- smen's joys, Our|plea- sure knows no|bounds, * Our|plea- sure knows no|bounds, * For|these, my boys, Are|
 B2 B B2 A | B2 B (A>G)A | B3- B2 d | d2 d d2 c | B2 B B2 A | B2 B _A2 A | G3- G2 F | =A2 A A2 A | %33
w: vites ye all, Come|in boys, while * ye|may, * The|hunt- sman's call In-|vites ye all, Come|in boys, while ye|may, * Come|in boys, while ye|
w: sport- smen's joys, Our|plea- sure knows * no|bounds, * For|these, my boys, are|sport- smen's joys, Our|plea- sure knows no|bounds, * Our|plea- sure knows no|
 B3- !fermata!B2 :| %34
w: may. *|
w: bounds. *|
V:3
[K:Bb] F, | (D,2 (D,) D,2) F, | B,3- B,2 z | z2 B, F,2 F, | B,,3- B,,2 z |[M:6/8] z2 B, F,2 F, | %6
w: A-|way, * * a-|way, *|* * a-|way; *|We've crown'd the|
w: The|jol- ly, jol- ly|horn, *|the jol- ly|horn, *|The ro- sy|
 B,,3- B,,2 z | z2 B,, B,,2 C, | F,2 F, F,2 F, | C,2 C, C,2 C, | F,3- F,2 | z | z6 | z3 z2 F, | %14
w: day; *|We've crown'd the|day, The hounds are|wait- ing for their|prey. *|||The|
w: morn, *|The ro- sy|morn, With har- mo-|ny of deep- mouth'd|hounds. *|||For|
 B,2 B, (TB,>A,)B, | C2 F, F,2 F, | F,3 F,3 | F,6- | F,3 F,2 B, | F,2 F, F,2 z | z6 | z3 z2 F, | %22
w: hunt- sman's ~call * In-|vites ye all, The|hunt- sman's|call|* * In-|vites ye all;||Come|
w: these, my boys, * Are|sport- smen's joys, For|these, my|boys,|* * Are|sport- smen's joys,||Our|
 D,2 F, B,2 C | D3- D2 B, | B,2 B, F,2 F, | B,2 B,, B,,2 F, | D,2 B,, F,2 F, | B,,3- B,,2 B, | %28
w: in boys, while ye|may, * The|hunt- sman's call In-|vites ye all, Come|in boys, while ye|may, * The|
w: plea- sure knows no|bounds, * For|these, my boys, Are|sport- smen's joys, Our|plea- sure knows no|bounds, * For|
 B,2 B, F,2 F, | B,2 B,, B,,2 F, | B,2 B,, B,,2 B,, | E,3- E,2 B,, | F,2 F, F,2 F, | %33
w: hunt- sman's call In-|vites ye all, Come|in boys, while ye|may, * Come|in boys, while ye|
w: these, my boys, Are|sport- smen's joys, Our|plea- sure knows no|bounds, * Our|plea- sure knows no|
 B,,3- !fermata!B,,2 :| %34
w: may. *|
w: bounds. *|

